material/.icons/material/fullscreen-exit.svg

<svg xmlns="http://www.w3.org/2000/svg" viewBox="0 0 24 24"><path d="M14 14h5v2h-3v3h-2v-5m-9 0h5v5H8v-3H5v-2m3-9h2v5H5V8h3V5m11 3v2h-5V5h2v3h3z"/></svg>

<?xml version="1.0" encoding="UTF-8"?><!DOCTYPE svg PUBLIC "-//W3C//DTD SVG 1.1//EN" "http://www.w3.org/Graphics/SVG/1.1/DTD/svg11.dtd"><svg xmlns="http://www.w3.org/2000/svg" xmlns:xlink="http://www.w3.org/1999/xlink" version="1.1" id="mdi-fullscreen-exit" width="24" height="24" viewBox="0 0 24 24"><path d="M14,14H19V16H16V19H14V14M5,14H10V19H8V16H5V14M8,5H10V10H5V8H8V5M19,8V10H14V5H16V8H19Z" /></svg>
